X:3729
T:Lo mometto
O:england
S:Esbelin/Pauvert
M:3/8
L:1/8
K:C
g>ag|gf2|d/e/fg/f/|ed2|\
g>ag|gf2|d/e/cB|c3:|
|:f2f|ed2|d/e/fg/f/|ed2|\
f2f|ed2|d~cB|c3:|
